front/public/Resources/rocket.svg

<svg id="_0001_analysis" xmlns="http://www.w3.org/2000/svg" xmlns:xlink="http://www.w3.org/1999/xlink" viewBox="0 0 500 500" data-imageid="rocket-launch-59" imageName="Rocket Launch" class="illustrations_image" style="width: 165px;"><defs><style>.cls-1_rocket-launch-59{fill:url(#linear-gradient);}.cls-1_rocket-launch-59,.cls-2_rocket-launch-59,.cls-3_rocket-launch-59,.cls-4_rocket-launch-59,.cls-5_rocket-launch-59,.cls-6_rocket-launch-59,.cls-7_rocket-launch-59,.cls-8_rocket-launch-59,.cls-9_rocket-launch-59,.cls-10_rocket-launch-59,.cls-11_rocket-launch-59{stroke-width:0px;}.cls-2_rocket-launch-59{fill:url(#linear-gradient-4-rocket-launch-59);}.cls-3_rocket-launch-59{fill:url(#linear-gradient-2-rocket-launch-59);}.cls-4_rocket-launch-59{fill:url(#linear-gradient-3-rocket-launch-59);}.cls-5_rocket-launch-59{fill:url(#linear-gradient-8-rocket-launch-59);}.cls-6_rocket-launch-59{fill:url(#linear-gradient-9-rocket-launch-59);}.cls-7_rocket-launch-59{fill:url(#linear-gradient-7-rocket-launch-59);}.cls-8_rocket-launch-59{fill:url(#linear-gradient-5-rocket-launch-59);}.cls-9_rocket-launch-59{fill:url(#linear-gradient-6-rocket-launch-59);}.cls-10_rocket-launch-59{isolation:isolate;opacity:.24;}.cls-10_rocket-launch-59,.cls-11_rocket-launch-59{fill:#68e1fd;}</style><linearGradient id="linear-gradient-rocket-launch-59" x1="522.84" y1="-564.91" x2="508.39" y2="-590.41" gradientTransform="translate(-153.39 863.23) rotate(-9.18)" gradientUnits="userSpaceOnUse"><stop offset="0" stop-color="#231f20" stop-opacity="0"/><stop offset=".95" stop-color="#231f20"/></linearGradient><linearGradient id="linear-gradient-2-rocket-launch-59" x1="497.1" y1="-589.01" x2="516.06" y2="-589.01" gradientTransform="translate(-153.39 863.23) rotate(-9.18)" gradientUnits="userSpaceOnUse"><stop offset="0" stop-color="#231f20" stop-opacity="0"/><stop offset=".95" stop-color="#231f20"/></linearGradient><linearGradient id="linear-gradient-3-rocket-launch-59" x1="289.89" y1="164.62" x2="311.18" y2="198.5" gradientUnits="userSpaceOnUse"><stop offset=".02" stop-color="#fff" stop-opacity="0"/><stop offset=".32" stop-color="#fff" stop-opacity=".39"/><stop offset=".68" stop-color="#fff" stop-opacity=".68"/><stop offset="1" stop-color="#fff"/></linearGradient><linearGradient id="linear-gradient-4-rocket-launch-59" x1="236.78" y1="171.64" x2="259.15" y2="228.76" gradientUnits="userSpaceOnUse"><stop offset="0" stop-color="#231f20" stop-opacity="0"/><stop offset=".95" stop-color="#231f20"/></linearGradient><linearGradient id="linear-gradient-5-rocket-launch-59" x1="126.85" y1="-646.29" x2="379.21" y2="-646.29" gradientTransform="translate(-61.01 965.87)" xlink:href="#linear-gradient-3-rocket-launch-59"/><linearGradient id="linear-gradient-6-rocket-launch-59" x1="276.28" y1="-587.42" x2="173.27" y2="-763.26" gradientTransform="translate(-61.01 965.87)" xlink:href="#linear-gradient-3-rocket-launch-59"/><linearGradient id="linear-gradient-7-rocket-launch-59" x1="578.03" y1="-598.08" x2="575.27" y2="-626.2" gradientTransform="translate(-153.39 863.23) rotate(-9.18)" xlink:href="#linear-gradient-3-rocket-launch-59"/><linearGradient id="linear-gradient-8-rocket-launch-59" x1="456.76" y1="-640.4" x2="399.95" y2="-741" gradientTransform="translate(-61.01 965.87)" xlink:href="#linear-gradient-3-rocket-launch-59"/><linearGradient id="linear-gradient-9-rocket-launch-59" x1="134.82" y1="-726.27" x2="196.42" y2="-790.42" gradientTransform="translate(-61.01 965.87)" gradientUnits="userSpaceOnUse"><stop offset=".02" stop-color="#fff" stop-opacity="0"/><stop offset=".32" stop-color="#fff" stop-opacity=".39"/><stop offset=".66" stop-color="#fff" stop-opacity=".68"/><stop offset="1" stop-color="#fff"/></linearGradient></defs><path id="background_rocket-launch-59" class="cls-10_rocket-launch-59 targetColor" d="M436.72,433.28c-7.44,21.31-59.62,7.53-75.05,6.49-14.48-.98-28.97-1.71-43.47-2.18-39.79-1.33-79.66-.84-119.4,1.49-9.42.54-18.84,1.19-28.25,1.95-18.75,1.49-37.75,3.41-56.3.64-1.47-.22-2.95-.46-4.43-.75-16.9-3.24-33.59-11.45-43.98-24.83-1.9-2.44-3.58-5.05-5.01-7.8-9.9-19.11-6.56-42.16-11.21-63.16-4.15-18.75-14.56-35.47-20.95-53.59-23.92-67.71,11.58-141.99,79.29-165.91,2.28-.81,4.58-1.55,6.9-2.22,31.83-9.3,66.34-6.22,98.01-15.99,33.43-10.33,61.27-34.22,94.41-45.49,29.22-9.82,60.93-9.35,89.85,1.32,33.71,12.55,64.21,47.5,53.43,81.83-4.46,14.19-15.44,26.29-16.9,41.1-2.83,28.89,30.52,49.35,35.06,78.02,5.12,32.38-26.5,56.89-46.25,83.06-5.45,7.19-10.24,15.26-11.67,24.16-3.77,23.57,31.48,45.97,25.92,61.86Z" style="fill: rgb(34, 91, 115);"/><g id="rocket_rocket-launch-59"><path class="cls-11_rocket-launch-59 targetColor" d="M257.07,204.24s12.26,3.18,10.92,6.59c-1.35,3.41-6.99,6.89-14.82,10.92l.28,3.89s20.71-6.27,23.16-14.73c1.42-5.01.42-10.39-2.69-14.56l-16.84,7.88h-.01Z" style="fill: rgb(34, 91, 115);"/><path class="cls-1_rocket-launch-59" d="M257.07,204.24s12.26,3.18,10.92,6.59c-1.35,3.41-6.99,6.89-14.82,10.92l.28,3.89s20.71-6.27,23.16-14.73c1.42-5.01.42-10.39-2.69-14.56l-16.84,7.88h-.01Z"/><path class="cls-11_rocket-launch-59 targetColor" d="M253.87,191.21s-8.37,4.95-9.7,6.07-1.31,4.76,1.86,8.59c4.77,5.75,8.71,4.28,8.71,4.28l8.07-8.37-8.93-10.57h-.01Z" style="fill: rgb(34, 91, 115);"/><path class="cls-3_rocket-launch-59" d="M253.87,191.21s-8.37,4.95-9.7,6.07-1.31,4.76,1.86,8.59c4.77,5.75,8.71,4.28,8.71,4.28l8.07-8.37-8.93-10.57h-.01Z"/><path class="cls-11_rocket-launch-59 targetColor" d="M247.24,196.48c7.61-12.77,17.73-23.87,29.76-32.61,20.28-14.91,50.24-25.96,60.24-22.8,10,3.16-2.68,26.87-44.28,49.6-.89.47-6.85,3.76-7.78,4.16l-28.93,12.13s-5.43-.27-9.01-10.48Z" style="fill: rgb(34, 91, 115);"/><path class="cls-4_rocket-launch-59" d="M247.24,196.48c7.61-12.77,17.73-23.87,29.76-32.61,20.28-14.91,50.24-25.96,60.24-22.8,10,3.16-2.68,26.87-44.28,49.6-.89.47-6.85,3.76-7.78,4.16l-28.93,12.13s-5.43-.27-9.01-10.48Z"/><path class="cls-11_rocket-launch-59 targetColor" d="M264.1,174.99s-8.99-8.92-19.07-4.5-24.55,25.95-24.55,25.95l5,.28s16.68-15.84,19.69-14.56,3.25,12.22,3.25,12.22c0,0,6.97-.9,11.94-9.04,4.97-8.14,3.75-10.35,3.75-10.35h0Z" style="fill: rgb(34, 91, 115);"/><path class="cls-2_rocket-launch-59" d="M264.1,174.99s-8.99-8.92-19.07-4.5-24.55,25.95-24.55,25.95l5,.28s16.68-15.84,19.69-14.56,3.25,12.22,3.25,12.22c0,0,6.97-.9,11.94-9.04,4.97-8.14,3.75-10.35,3.75-10.35h0Z"/><path class="cls-8_rocket-launch-59" d="M318.2,437.58c-39.79-1.33-79.66-.84-119.4,1.49-9.42.54-18.84,1.19-28.25,1.95-18.75,1.49-37.75,3.41-56.3.64-1.47-.22-2.95-.46-4.43-.75-16.9-3.24-33.59-11.45-43.98-24.83,5.05-57.08,37.66-93.94,51.67-112.36,23.53-30.91,118.4-103.92,128.08-106.67h0c9.59-2.71,7.22,1.21,7.22,1.21l1.9,11.89h0c-1.89,1.3-150.9,104.23-81.51,168.5,36.5,33.81,93.74,50.63,144.99,58.93h.01Z"/><path class="cls-9_rocket-launch-59" d="M125.96,348.86c-18.35,45.08,18.95,71.51,72.84,90.22-9.42.54-18.84,1.19-28.25,1.95-18.75,1.49-37.75,3.41-56.3.64-10.19-22.79-14.56-43.67-13.96-58.44,3.07-81.36,143.14-184.57,145.31-186.17h0l9.12,13.06h0c-1.59.53-84.38,29.65-128.76,138.73h0Z"/><circle class="cls-7_rocket-launch-59" cx="316.65" cy="161.01" r="5.6"/></g><g id="clouds_rocket-launch-59"><path class="cls-5_rocket-launch-59" d="M366.77,253.56c-12.13-5.64-26.23-7.45-39.01-3.64-12.79,3.81-23.92,13.73-28,26.44-1.13,3.52-1.77,7.28-3.94,10.31-2.8,3.86-7.58,5.65-11.31,8.65-11.6,9.33-9.57,29.28,1.52,39.22,11.09,9.93,27.8,11.18,42.19,7.38,15.08,16.92,40.36,23.94,62.01,17.22,4.22,6.39,13.46,7.78,20.68,5.19,7.22-2.58,12.88-8.18,18.29-13.61l16.51-16.56c9.23-9.26,18.56-18.66,25.1-29.97,6.54-11.32,10.03-24.99,6.7-37.6-5.32-20.08-25.9-32.04-45.98-26.72-4.42,1.17-8.58,3.13-12.3,5.8-2.11-13.53-13.34-15.44-26.21-12.76-3.2.66-31.34,18.28-26.25,20.66h0Z"/><path class="cls-6_rocket-launch-59" d="M100.79,185.34c6.2-3.41,13.34-5.85,20.31-4.43s13.19,7.75,12.49,14.8c7.43-.78,14.08,4.61,14.86,12.04.55,5.28-2.03,10.4-6.62,13.08,7.4,5.54,7.11,17.72,1.02,24.67s-16.11,9.28-25.33,8.6-18.01-3.94-26.9-6.47c-2.38-.87-4.93-1.13-7.44-.76-2.72.63-4.85,2.62-7.08,4.33-10.15,7.79-23.19,10.79-35.72,8.21-4.01-.7-7.77-2.43-10.92-5.02-4.23-3.8-6.16-9.58-6.81-15.24-1.73-15.22,6.07-31.96,20.37-37.6,0,0,1.92-7.95,2.43-8.87,1.6-3.03,3.82-5.69,6.53-7.79,4.85-3.77,11.15-5.76,16.91-7.63,11.18-3.66,28.7-8.79,31.9,8.07h0Z"/></g></svg>

<svg width="500" height="500" viewBox="0 0 500 500" fill="none" xmlns="http://www.w3.org/2000/svg">
<path opacity="0.24" d="M436.72 433.28C429.28 454.59 377.1 440.81 361.67 439.77C347.19 438.79 332.7 438.06 318.2 437.59C278.41 436.26 238.54 436.75 198.8 439.08C189.38 439.62 179.96 440.27 170.55 441.03C151.8 442.52 132.8 444.44 114.25 441.67C112.78 441.45 111.3 441.21 109.82 440.92C92.92 437.68 76.23 429.47 65.84 416.09C63.94 413.65 62.26 411.04 60.83 408.29C50.93 389.18 54.27 366.13 49.62 345.13C45.47 326.38 35.06 309.66 28.67 291.54C4.75 223.83 40.25 149.55 107.96 125.63C110.24 124.82 112.54 124.08 114.86 123.41C146.69 114.11 181.2 117.19 212.87 107.42C246.3 97.09 274.14 73.2 307.28 61.93C336.5 52.11 368.21 52.58 397.13 63.25C430.84 75.8 461.34 110.75 450.56 145.08C446.1 159.27 435.12 171.37 433.66 186.18C430.83 215.07 464.18 235.53 468.72 264.2C473.84 296.58 442.22 321.09 422.47 347.26C417.02 354.45 412.23 362.52 410.8 371.42C407.03 394.99 442.28 417.39 436.72 433.28Z" fill="#41BBB1"/>
<path d="M257.07 204.24C257.07 204.24 269.33 207.42 267.99 210.83C266.64 214.24 261 217.72 253.17 221.75L253.45 225.64C253.45 225.64 274.16 219.37 276.61 210.91C278.03 205.9 277.03 200.52 273.92 196.35L257.08 204.23H257.07V204.24Z" fill="#41BBB1"/>
<path d="M253.87 191.21C253.87 191.21 245.5 196.16 244.17 197.28C242.84 198.4 242.86 202.04 246.03 205.87C250.8 211.62 254.74 210.15 254.74 210.15L262.81 201.78L253.88 191.21H253.87Z" fill="#41BBB1"/>
<path d="M253.87 191.21C253.87 191.21 245.5 196.16 244.17 197.28C242.84 198.4 242.86 202.04 246.03 205.87C250.8 211.62 254.74 210.15 254.74 210.15L262.81 201.78L253.88 191.21H253.87Z" fill="url(#paint0_linear_46_2)"/>
<path d="M247.24 196.48C254.85 183.71 264.97 172.61 277 163.87C297.28 148.96 327.24 137.91 337.24 141.07C347.24 144.23 334.56 167.94 292.96 190.67C292.07 191.14 286.11 194.43 285.18 194.83L256.25 206.96C256.25 206.96 250.82 206.69 247.24 196.48Z" fill="#41BBB1"/>
<path d="M247.24 196.48C254.85 183.71 264.97 172.61 277 163.87C297.28 148.96 327.24 137.91 337.24 141.07C347.24 144.23 334.56 167.94 292.96 190.67C292.07 191.14 286.11 194.43 285.18 194.83L256.25 206.96C256.25 206.96 250.82 206.69 247.24 196.48Z" fill="url(#paint1_linear_46_2)"/>
<path d="M264.1 174.99C264.1 174.99 255.11 166.07 245.03 170.49C234.95 174.91 220.48 196.44 220.48 196.44L225.48 196.72C225.48 196.72 242.16 180.88 245.17 182.16C248.18 183.44 248.42 194.38 248.42 194.38C248.42 194.38 255.39 193.48 260.36 185.34C265.33 177.2 264.11 174.99 264.11 174.99H264.1Z" fill="#41BBB1"/>
<path d="M264.1 174.99C264.1 174.99 255.11 166.07 245.03 170.49C234.95 174.91 220.48 196.44 220.48 196.44L225.48 196.72C225.48 196.72 242.16 180.88 245.17 182.16C248.18 183.44 248.42 194.38 248.42 194.38C248.42 194.38 255.39 193.48 260.36 185.34C265.33 177.2 264.11 174.99 264.11 174.99H264.1Z" fill="url(#paint2_linear_46_2)"/>
<path d="M318.2 437.58C278.41 436.25 238.54 436.74 198.8 439.07C189.38 439.61 179.96 440.26 170.55 441.02C151.8 442.51 132.8 444.43 114.25 441.66C112.78 441.44 111.3 441.2 109.82 440.91C92.92 437.67 76.23 429.46 65.84 416.08C70.89 359 103.5 322.14 117.51 303.72C141.04 272.81 235.91 199.8 245.59 197.05C255.18 194.34 252.81 198.26 252.81 198.26L254.71 210.15C252.82 211.45 103.81 314.38 173.2 378.65C209.7 412.46 266.94 429.28 318.19 437.58H318.2Z" fill="url(#paint3_linear_46_2)"/>
<path d="M125.96 348.86C107.61 393.94 144.91 420.37 198.8 439.08C189.38 439.62 179.96 440.27 170.55 441.03C151.8 442.52 132.8 444.44 114.25 441.67C104.06 418.88 99.69 398 100.29 383.23C103.36 301.87 243.43 198.66 245.6 197.06L254.72 210.12C253.13 210.65 170.34 239.77 125.96 348.85V348.86Z" fill="url(#paint4_linear_46_2)"/>
<path d="M316.65 166.61C319.743 166.61 322.25 164.103 322.25 161.01C322.25 157.917 319.743 155.41 316.65 155.41C313.557 155.41 311.05 157.917 311.05 161.01C311.05 164.103 313.557 166.61 316.65 166.61Z" fill="url(#paint5_linear_46_2)"/>
<path d="M366.77 253.56C354.64 247.92 340.54 246.11 327.76 249.92C314.97 253.73 303.84 263.65 299.76 276.36C298.63 279.88 297.99 283.64 295.82 286.67C293.02 290.53 288.24 292.32 284.51 295.32C272.91 304.65 274.94 324.6 286.03 334.54C297.12 344.47 313.83 345.72 328.22 341.92C343.3 358.84 368.58 365.86 390.23 359.14C394.45 365.53 403.69 366.92 410.91 364.33C418.13 361.75 423.79 356.15 429.2 350.72L445.71 334.16C454.94 324.9 464.27 315.5 470.81 304.19C477.35 292.87 480.84 279.2 477.51 266.59C472.19 246.51 451.61 234.55 431.53 239.87C427.11 241.04 422.95 243 419.23 245.67C417.12 232.14 405.89 230.23 393.02 232.91C389.82 233.57 361.68 251.19 366.77 253.57V253.56Z" fill="url(#paint6_linear_46_2)"/>
<path d="M100.79 185.34C106.99 181.93 114.13 179.49 121.1 180.91C128.07 182.33 134.29 188.66 133.59 195.71C141.02 194.93 147.67 200.32 148.45 207.75C149 213.03 146.42 218.15 141.83 220.83C149.23 226.37 148.94 238.55 142.85 245.5C136.76 252.45 126.74 254.78 117.52 254.1C108.3 253.42 99.51 250.16 90.62 247.63C88.24 246.76 85.69 246.5 83.18 246.87C80.46 247.5 78.33 249.49 76.1 251.2C65.95 258.99 52.91 261.99 40.38 259.41C36.37 258.71 32.61 256.98 29.46 254.39C25.23 250.59 23.3 244.81 22.65 239.15C20.92 223.93 28.72 207.19 43.02 201.55C43.02 201.55 44.94 193.6 45.45 192.68C47.05 189.65 49.27 186.99 51.98 184.89C56.83 181.12 63.13 179.13 68.89 177.26C80.07 173.6 97.59 168.47 100.79 185.33V185.34Z" fill="url(#paint7_linear_46_2)"/>
<defs>
<linearGradient id="paint0_linear_46_2" x1="243.374" y1="202.458" x2="262.092" y2="199.434" gradientUnits="userSpaceOnUse">
<stop stop-color="#231F20" stop-opacity="0"/>
<stop offset="0.95" stop-color="#231F20"/>
</linearGradient>
<linearGradient id="paint1_linear_46_2" x1="289.89" y1="164.62" x2="311.18" y2="198.5" gradientUnits="userSpaceOnUse">
<stop offset="0.02" stop-color="white" stop-opacity="0"/>
<stop offset="0.32" stop-color="white" stop-opacity="0.39"/>
<stop offset="0.68" stop-color="white" stop-opacity="0.68"/>
<stop offset="1" stop-color="white"/>
</linearGradient>
<linearGradient id="paint2_linear_46_2" x1="236.78" y1="171.64" x2="259.15" y2="228.76" gradientUnits="userSpaceOnUse">
<stop stop-color="#231F20" stop-opacity="0"/>
<stop offset="0.95" stop-color="#231F20"/>
</linearGradient>
<linearGradient id="paint3_linear_46_2" x1="65.84" y1="319.58" x2="318.2" y2="319.58" gradientUnits="userSpaceOnUse">
<stop offset="0.02" stop-color="white" stop-opacity="0"/>
<stop offset="0.32" stop-color="white" stop-opacity="0.39"/>
<stop offset="0.68" stop-color="white" stop-opacity="0.68"/>
<stop offset="1" stop-color="white"/>
</linearGradient>
<linearGradient id="paint4_linear_46_2" x1="215.27" y1="378.45" x2="112.26" y2="202.61" gradientUnits="userSpaceOnUse">
<stop offset="0.02" stop-color="white" stop-opacity="0"/>
<stop offset="0.32" stop-color="white" stop-opacity="0.39"/>
<stop offset="0.68" stop-color="white" stop-opacity="0.68"/>
<stop offset="1" stop-color="white"/>
</linearGradient>
<linearGradient id="paint5_linear_46_2" x1="321.821" y1="180.593" x2="314.61" y2="153.274" gradientUnits="userSpaceOnUse">
<stop offset="0.02" stop-color="white" stop-opacity="0"/>
<stop offset="0.32" stop-color="white" stop-opacity="0.39"/>
<stop offset="0.68" stop-color="white" stop-opacity="0.68"/>
<stop offset="1" stop-color="white"/>
</linearGradient>
<linearGradient id="paint6_linear_46_2" x1="395.75" y1="325.47" x2="338.94" y2="224.87" gradientUnits="userSpaceOnUse">
<stop offset="0.02" stop-color="white" stop-opacity="0"/>
<stop offset="0.32" stop-color="white" stop-opacity="0.39"/>
<stop offset="0.68" stop-color="white" stop-opacity="0.68"/>
<stop offset="1" stop-color="white"/>
</linearGradient>
<linearGradient id="paint7_linear_46_2" x1="73.81" y1="239.6" x2="135.41" y2="175.45" gradientUnits="userSpaceOnUse">
<stop offset="0.02" stop-color="white" stop-opacity="0"/>
<stop offset="0.32" stop-color="white" stop-opacity="0.39"/>
<stop offset="0.66" stop-color="white" stop-opacity="0.68"/>
<stop offset="1" stop-color="white"/>
</linearGradient>
</defs>
</svg>
